X:7022
T:The Little Jumper
O:england
M:12/8
L:1/8
C:Chris Corrigan
R:Slide
N:Composed in honour of my unborn child, who did a lot of jumping in
N:utero.
K:G
||:e2 A ABA ABA ABd|e2 A ABA d2 G GBd|e2 A ABA ABA ABd|
efg a2 d B2 G GBd:||:efg a3 bag agf|efg a3 b g2 f edB|
efg a3 bag a2 f|g2 e f2 d e2 d BAG :||


